dist/img/features/salary-1.svg

<svg width="72" height="74" viewBox="0 0 72 74" fill="none" xmlns="http://www.w3.org/2000/svg">
<path d="M32.2557 13.6157C31.9128 13.6157 31.5744 13.4583 31.3555 13.1607C30.34 11.781 28.533 10.1983 25.6897 10.5019C22.3422 10.8585 19.8563 9.79315 18.3601 8.83679C17.8405 8.50466 17.6886 7.81423 18.0206 7.29464C18.3526 6.77491 19.0433 6.62315 19.5627 6.95514C20.7578 7.71884 22.7499 8.5697 25.4532 8.28121C29.5562 7.84559 32.0391 10.3217 33.1541 11.8371C33.5197 12.3337 33.4133 13.0328 32.9165 13.3983C32.7172 13.5449 32.4855 13.6157 32.2557 13.6157Z" fill="#FFD064"/>
<path d="M20.565 19.5454C20.3657 19.5454 20.1642 19.4922 19.9818 19.3802C19.4562 19.0576 19.2918 18.37 19.6144 17.8444C21.0457 15.5127 23.6687 13.9101 27.1999 13.21C29.7745 12.6996 31.9348 12.8394 32.0253 12.8458C32.6406 12.888 33.1051 13.4209 33.0629 14.0361C33.0207 14.651 32.4865 15.112 31.8739 15.0739C31.7964 15.0687 24.2143 14.6192 21.5176 19.0126C21.3069 19.3562 20.9402 19.5454 20.565 19.5454Z" fill="#FFD064"/>
<path d="M37.3964 62.333C55.7347 62.333 65.8747 35.4343 36.9157 14.6589C36.1954 14.1421 35.7676 13.31 35.7773 12.4235C35.7852 11.6908 36.0173 10.9796 36.4375 10.3794C37.7932 8.44337 39.7446 5.13158 40.9149 2.46411C41.1952 1.82529 40.7941 1.13818 40.0444 1.13818C38.305 1.13833 38.305 0 36.5655 0C34.8261 0 34.8261 1.13833 33.0865 1.13833C31.6042 1.13833 30.996 -0.137016 30.2754 0.790586C28.1736 3.49563 35.3724 13.0082 35.3724 13.0082C3.5793 33.9089 13.8305 62.3331 32.6016 62.3331H37.3964V62.333Z" fill="#EABC6B"/>
<path d="M44.6054 13.0081C44.6054 13.0081 51.911 3.52627 49.8102 0.80634C49.0942 -0.120684 48.4837 1.13833 47.003 1.13833C45.2633 1.13818 45.2633 0 43.5235 0C41.784 0 41.784 1.13818 40.0444 1.13818C39.9587 1.13818 39.8805 1.13341 39.8029 1.12807C39.1039 4.1242 35.9541 8.79184 34.1517 11.2911C34.8615 12.3327 35.3726 13.008 35.3726 13.008C34.9485 13.2868 34.5334 13.5671 34.1242 13.8486C64.5005 34.7274 54.3365 62.3329 35.7589 62.3329H47.4887C66.3167 62.333 76.5044 33.9783 44.6054 13.0081Z" fill="#E8AE4D"/>
<path d="M45.9638 16.3806C41.7188 17.4527 37.5249 17.4527 33.2792 16.3806C31.8015 16.0074 30.9638 14.3457 31.4955 12.8352C31.5014 12.8183 31.5074 12.8014 31.5133 12.7845C31.9592 11.5181 33.2237 10.8075 34.463 11.1186C37.939 11.9913 41.3028 11.9916 44.7798 11.1186C46.0192 10.8075 47.2837 11.5181 47.7296 12.7845C47.7355 12.8014 47.7414 12.8183 47.7473 12.8352C48.2792 14.3457 47.4415 16.0074 45.9638 16.3806Z" fill="#FFE07D"/>
<path d="M6.04977 67.2098L22.2165 73.2272C23.5895 73.7383 25.0428 74 26.5079 74H43.1689C45.5004 74 47.784 73.3375 49.7536 72.0895L70.6148 58.8706C71.9911 57.6485 72.2462 55.5947 71.2108 54.0729C70.0778 52.4079 68.2037 52.1186 66.1414 53.0937L45.831 62.0365L45.855 58.7413C45.586 56.0365 43.5035 53.8658 40.8123 53.4851L28.4439 52.061C25.5907 51.6574 24.165 50.7012 21.6776 49.2462C18.2819 47.2597 14.4186 46.2127 10.4844 46.2127H6.04977V67.2098Z" fill="#FFDDCE"/>
<path d="M21.2347 70.0209C22.6781 70.5582 24.2059 70.8333 25.7461 70.8333H43.2612C45.126 70.8333 46.9609 70.4292 48.644 69.6587L60.8914 61.898C62.0293 61.1769 62.7517 59.9218 62.7147 58.5752C62.695 57.8611 62.4768 57.1462 62.0491 56.5178C62.0491 56.5178 61.6762 55.8788 61.2931 55.2285L45.831 62.0365L45.855 58.7413C45.586 56.0365 43.5035 53.8658 40.8123 53.4851L28.4439 52.061C25.5907 51.6574 24.165 50.7012 21.6776 49.2462C18.2819 47.2597 14.4186 46.2127 10.4844 46.2127H6.04977V64.3689L21.2347 70.0209Z" fill="#FFDDCE"/>
<path d="M71.2107 54.0729C70.0777 52.4079 68.2036 52.1186 66.1412 53.0937L60.5547 55.5535C60.8252 55.9818 61.0404 56.3236 61.0404 56.3236C62.0759 57.8454 61.8208 59.8991 60.4444 61.1213L48.2889 68.8237C46.6879 69.5566 44.9424 69.941 43.1686 69.941H26.5079C25.0428 69.941 23.5895 69.6793 22.2165 69.1682L6.04977 63.1507V67.2097L22.2165 73.2273C23.5895 73.7383 25.0428 74.0001 26.5079 74.0001H40.1201H43.169C45.5006 74.0001 47.7842 73.3375 49.7537 72.0895L70.6149 58.8707C71.991 57.6485 72.2462 55.5946 71.2107 54.0729Z" fill="#FFCBBE"/>
<path d="M44.3386 55.3465L44.338 55.426L44.3904 55.4028C44.3734 55.3838 44.3558 55.3654 44.3386 55.3465Z" fill="#F5DBCC"/>
<path d="M45.8309 62.0344H33.2019C32.5851 62.0344 32.0852 61.5347 32.0852 60.9178C32.0852 60.3009 32.585 59.8011 33.2019 59.8011H45.8472L45.8309 62.0344Z" fill="#FFCBBE"/>
<path d="M9.5285 70.4299C9.5285 71.603 8.57763 72.5538 7.40462 72.5538H2.27867C1.10566 72.5538 0.154785 71.603 0.154785 70.4299V44.4236C0.154785 43.2506 1.10566 42.2997 2.27867 42.2997H7.40462C8.57763 42.2997 9.5285 43.2506 9.5285 44.4236V70.4299Z" fill="#AB66D9"/>
<path d="M42.4484 34.6047C41.937 34.4239 41.4664 34.251 41.0322 34.0841V26.9645C42.353 27.1834 43.1459 27.8666 43.204 27.9182C43.6577 28.3307 44.3595 28.3004 44.7757 27.849C45.1939 27.3956 45.1654 26.6894 44.712 26.2712C44.6335 26.1985 43.266 24.9665 41.0321 24.7092V23.1215C41.0321 22.5048 40.5323 22.0049 39.9155 22.0049C39.2986 22.0049 38.7988 22.5047 38.7988 23.1215V24.7997C38.5295 24.8513 38.2538 24.9169 37.9704 25.0022C36.0761 25.5726 34.6603 27.1969 34.2751 29.2407C33.9257 31.0953 34.5136 32.879 35.8098 33.8956C36.5538 34.4792 37.4907 35.0136 38.7988 35.5847V44.4159C37.5066 44.3617 36.7129 44.1183 35.3259 43.2111C34.8098 42.8736 34.1179 43.0181 33.7803 43.5343C33.4426 44.0502 33.5873 44.7422 34.1034 45.0799C35.9263 46.2724 37.1448 46.5834 38.7988 46.6478V48.4203C38.7988 49.037 39.2986 49.5369 39.9155 49.5369C40.5323 49.5369 41.0321 49.0371 41.0321 48.4203V46.5693C44.1667 46.0607 45.9959 43.5234 46.3936 41.1566C46.8911 38.1993 45.3422 35.6277 42.4484 34.6047ZM37.188 32.1383C36.5505 31.6383 36.2754 30.6864 36.47 29.6542C36.6502 28.697 37.3084 27.5339 38.6147 27.1405C38.6768 27.1217 38.738 27.1055 38.7991 27.0892V33.1209C38.1304 32.7872 37.606 32.4661 37.188 32.1383ZM44.1916 40.786C43.9451 42.2514 42.8695 43.8158 41.0322 44.2867V36.4684C41.2495 36.5479 41.4715 36.6281 41.7039 36.7102C44.4828 37.6924 44.3105 40.0782 44.1916 40.786Z" fill="white"/>
</svg>

<svg width="72" height="74" fill="none" xmlns="http://www.w3.org/2000/svg"><path d="M32.256 13.616c-.343 0-.682-.158-.9-.455-1.016-1.38-2.823-2.963-5.666-2.66-3.348.357-5.834-.708-7.33-1.664a1.117 1.117 0 011.203-1.882c1.195.764 3.187 1.615 5.89 1.326 4.103-.435 6.586 2.04 7.701 3.556a1.117 1.117 0 01-.898 1.779z" fill="#FFD064"/><path d="M20.565 19.545a1.117 1.117 0 01-.95-1.701c1.43-2.331 4.054-3.934 7.585-4.634 2.575-.51 4.735-.37 4.825-.364a1.117 1.117 0 01-.151 2.228c-.078-.005-7.66-.455-10.356 3.939a1.117 1.117 0 01-.953.532z" fill="#FFD064"/><path d="M37.396 62.333c18.339 0 28.479-26.899-.48-47.674a2.717 2.717 0 01-1.139-2.236c.008-.732.24-1.443.66-2.044 1.356-1.936 3.308-5.247 4.478-7.915.28-.639-.12-1.326-.87-1.326-1.74 0-1.74-1.138-3.48-1.138-1.739 0-1.739 1.138-3.478 1.138-1.483 0-2.091-1.275-2.812-.347-2.101 2.705 5.097 12.217 5.097 12.217-31.793 20.9-21.541 49.325-2.77 49.325h4.794z" fill="#EABC6B"/><path d="M44.605 13.008S51.911 3.526 49.81.806c-.716-.927-1.326.332-2.807.332-1.74 0-1.74-1.138-3.48-1.138-1.739 0-1.739 1.138-3.479 1.138-.085 0-.163-.005-.241-.01-.7 2.996-3.849 7.664-5.651 10.163a46.948 46.948 0 001.22 1.717c-.423.279-.839.56-1.248.84 30.377 20.88 20.212 48.485 1.635 48.485h11.73c18.828 0 29.015-28.355-2.884-49.325z" fill="#E8AE4D"/><path d="M45.964 16.38c-4.245 1.073-8.44 1.073-12.685 0-1.478-.373-2.315-2.034-1.784-3.545l.018-.05c.446-1.267 1.71-1.978 2.95-1.666 3.476.872 6.84.873 10.317 0 1.24-.312 2.504.4 2.95 1.665l.017.051c.532 1.51-.306 3.172-1.783 3.546z" fill="#FFE07D"/><path d="M6.05 67.21l16.166 6.017c1.373.511 2.827.773 4.292.773h16.66c2.332 0 4.616-.662 6.586-1.91l20.86-13.22a3.662 3.662 0 00.597-4.797c-1.133-1.665-3.007-1.954-5.07-.98l-20.31 8.943.024-3.295a5.898 5.898 0 00-5.043-5.256l-12.368-1.424c-2.853-.404-4.279-1.36-6.766-2.815a22.167 22.167 0 00-11.194-3.033H6.05V67.21z" fill="#FFDDCE"/><path d="M21.235 70.02a12.91 12.91 0 004.511.813h17.515c1.865 0 3.7-.404 5.383-1.174l12.247-7.761c1.138-.721 1.86-1.976 1.824-3.323a3.837 3.837 0 00-.666-2.057s-.373-.64-.756-1.29l-15.462 6.808.024-3.295a5.898 5.898 0 00-5.043-5.256l-12.368-1.424c-2.853-.404-4.279-1.36-6.766-2.815a22.167 22.167 0 00-11.194-3.033H6.05v18.156l15.185 5.652z" fill="#FFDDCE"/><path d="M71.21 54.073c-1.132-1.665-3.006-1.954-5.069-.98l-5.586 2.46.485.77a3.661 3.661 0 01-.596 4.798L48.29 68.824a12.301 12.301 0 01-5.12 1.117H26.508c-1.465 0-2.918-.262-4.291-.773L6.05 63.151v4.059l16.166 6.017c1.373.511 2.827.773 4.292.773h16.661c2.332 0 4.615-.662 6.585-1.91l20.86-13.22a3.662 3.662 0 00.597-4.797z" fill="#FFCBBE"/><path d="M44.339 55.346l-.001.08.052-.023-.051-.056z" fill="#F5DBCC"/><path d="M45.83 62.034H33.203a1.116 1.116 0 110-2.233h12.645l-.016 2.233z" fill="#FFCBBE"/><path d="M9.528 70.43c0 1.173-.95 2.124-2.123 2.124H2.279A2.124 2.124 0 01.155 70.43V44.424c0-1.173.95-2.124 2.124-2.124h5.126c1.173 0 2.123.95 2.123 2.124V70.43z" fill="#AB66D9"/><path d="M42.448 34.605a60.77 60.77 0 01-1.416-.52v-7.12c1.321.218 2.114.902 2.172.953a1.116 1.116 0 001.508-1.647c-.079-.073-1.446-1.305-3.68-1.562v-1.587a1.117 1.117 0 10-2.233 0V24.8c-.27.051-.545.117-.829.202-1.894.57-3.31 2.195-3.695 4.239-.35 1.854.239 3.638 1.535 4.655.744.583 1.68 1.118 2.989 1.689v8.83c-1.292-.053-2.086-.297-3.473-1.204a1.116 1.116 0 10-1.223 1.869c1.823 1.192 3.042 1.503 4.696 1.568v1.772a1.117 1.117 0 102.233 0v-1.85c3.135-.51 4.964-3.047 5.362-5.413.497-2.958-1.052-5.53-3.946-6.552zm-5.26-2.467c-.638-.5-.913-1.452-.718-2.484.18-.957.838-2.12 2.145-2.514.062-.018.123-.035.184-.05v6.03c-.669-.333-1.193-.654-1.611-.982zm7.004 8.648c-.247 1.465-1.322 3.03-3.16 3.5v-7.818c.218.08.44.16.672.242 2.779.982 2.606 3.368 2.488 4.076z" fill="#fff"/></svg>
